assets/svg/wallet_icon_wallet_camera.svg

<svg width="81" height="80" viewBox="0 0 81 80" fill="none" xmlns="http://www.w3.org/2000/svg">
    <path
        d="M41.0405 31.1973C32.8201 31.1973 26.1562 37.8612 26.1562 46.0829C26.1562 54.3047 32.8201 60.9686 41.0405 60.9686C49.2609 60.9686 55.9248 54.3047 55.9248 46.0829C55.9248 37.8626 49.2609 31.1973 41.0405 31.1973ZM32.8102 52.6869C32.7089 52.6869 32.6061 52.6555 32.5177 52.5913C32.4107 52.5133 32.339 52.3962 32.3181 52.2655C32.2973 52.1348 32.329 52.0011 32.4064 51.8937L43.3403 36.8354C43.4182 36.7284 43.5354 36.6567 43.6661 36.6358C43.7969 36.615 43.9305 36.6467 44.0379 36.7241C44.1449 36.8021 44.2166 36.9192 44.2375 37.05C44.2583 37.1807 44.2266 37.3144 44.1492 37.4217L33.2153 52.4801C33.1169 52.6156 32.9642 52.6869 32.8102 52.6869ZM47.9027 40.8329L40.9735 50.3772C40.935 50.4302 40.8865 50.4751 40.8307 50.5093C40.7749 50.5435 40.7128 50.5664 40.6481 50.5766C40.5835 50.5868 40.5174 50.5841 40.4538 50.5688C40.3901 50.5534 40.3301 50.5256 40.2772 50.487C40.1703 50.409 40.0985 50.2919 40.0777 50.1612C40.0568 50.0304 40.0886 49.8968 40.166 49.7894L47.0952 40.2451C47.1732 40.1381 47.2903 40.0664 47.4211 40.0455C47.5518 40.0247 47.6855 40.0564 47.7928 40.1338C48.0154 40.2979 48.0653 40.6103 47.9027 40.8329Z"
        fill="#0166FF" />
    <path
        d="M9.35742 41.7341V53.2943C9.35742 54.8094 10.5858 56.0378 12.1009 56.0378H18.04C20.0331 56.0378 21.2157 53.8108 20.0987 52.1601C19.1839 50.8075 18.6949 49.212 18.6949 47.5791V45.8343C18.6949 43.9626 19.0743 42.1094 19.8091 40.3874L20.3227 39.1847C20.675 38.3573 20.0844 37.4356 19.187 37.41L13.9569 37.2616C11.4389 37.1903 9.35742 39.2133 9.35742 41.7341ZM72.3712 41.7341V53.2943C72.3712 54.8094 71.1428 56.0378 69.6277 56.0378H63.6886C61.6956 56.0378 60.5129 53.8108 61.6299 52.1601C62.5447 50.8075 63.0337 49.212 63.0338 47.5791V45.8343C63.0338 43.9626 62.6543 42.1094 61.9195 40.3874L61.4059 39.1847C61.0536 38.3573 61.6442 37.4356 62.5416 37.41L67.7717 37.2616C70.2897 37.1903 72.3712 39.2133 72.3712 41.7341Z"
        fill="#E1EAF8" />
    <path
        d="M75.5463 32.9176V24.5888C75.5463 23.2121 74.4264 22.0921 73.0496 22.0921H64.9876L61.6108 14.13C61.3433 13.4977 60.8952 12.9584 60.3227 12.5796C59.7503 12.2007 59.0787 11.9991 58.3922 12H33.8595C32.4543 12 31.1903 12.836 30.641 14.13L28.1486 20.0049C28.0416 20.2589 28.1601 20.5514 28.414 20.6598C28.6679 20.7668 28.9604 20.6484 29.0688 20.3944L31.5612 14.5195C31.7521 14.0678 32.072 13.6825 32.4808 13.4117C32.8896 13.1409 33.3692 12.9968 33.8595 12.9972H40.2666C36.3947 14.0915 33.1562 16.9191 31.6054 20.7739C31.4157 21.2447 31.5184 21.7369 31.7994 22.0907H21.5318V20.3502C21.5318 19.2346 20.6245 18.3272 19.5088 18.3272H13.5269C12.4113 18.3272 11.5039 19.2346 11.5039 20.3502V22.0907H8.565C7.18828 22.0907 6.06836 23.2106 6.06836 24.5874V66.976C6.06836 68.3527 7.18828 69.4727 8.565 69.4727H73.0496C74.4264 69.4727 75.5463 68.3527 75.5463 66.976V36.4985C75.5463 36.2231 75.3223 35.9991 75.047 35.9991C74.7716 35.9991 74.5476 36.2231 74.5476 36.4985V58.322H54.9255C57.8786 54.9251 59.4893 50.6295 59.4893 46.0841C59.4893 41.8684 58.0855 37.975 55.7215 34.845H73.6203C74.6817 34.8435 75.5463 33.9804 75.5463 32.9176ZM38.0453 16.5011C38.0453 15.949 38.4919 15.5024 39.044 15.5024H54.2221C54.7742 15.5024 55.2208 15.949 55.2208 16.5011V18.5897C55.2208 19.1418 54.7742 19.5884 54.2221 19.5884H39.044C38.4919 19.5884 38.0453 19.1418 38.0453 18.5897V16.5011ZM12.5026 20.3516C12.5026 19.7867 12.9619 19.3273 13.5269 19.3273H15.3887C14.6311 19.8452 14.1332 20.714 14.1332 21.7012C14.1332 21.8425 14.166 21.9737 14.2245 22.0921H12.5026V20.3516ZM53.3119 58.5887C49.9721 61.9285 45.531 63.7689 40.8073 63.7689C31.0562 63.7689 23.124 55.8353 23.1226 46.0827C23.1226 43.5447 23.649 41.0966 24.6847 38.8039C24.7989 38.5528 24.6862 38.2575 24.4351 38.1434C24.184 38.0293 23.8887 38.1405 23.7745 38.3931C22.6789 40.8155 22.1239 43.4035 22.1239 46.0841C22.1239 50.7607 23.8516 55.0421 26.7006 58.322H10.14C9.86468 58.322 9.64069 58.5459 9.64069 58.8213C9.64069 59.0966 9.86468 59.3206 10.14 59.3206H27.635C31.0148 62.6847 35.6728 64.7676 40.8073 64.7676C45.7977 64.7676 50.4886 62.8245 54.0181 59.2949C54.0281 59.2849 54.0367 59.275 54.0466 59.2664C54.1137 59.2992 54.1879 59.3206 54.2678 59.3206H74.5476V66.9774C74.5476 67.8035 73.8757 68.4754 73.0496 68.4754H8.565C7.73897 68.4754 7.06702 67.8035 7.06702 66.9774V34.8435H25.8831C25.6791 35.1132 25.4822 35.3885 25.2911 35.671C25.137 35.8993 25.1983 36.2103 25.4266 36.3644C25.6549 36.5184 25.9659 36.4571 26.1199 36.2288C29.4155 31.3254 34.9067 28.3979 40.8073 28.3979C50.5585 28.3979 58.4907 36.3315 58.4921 46.0841C58.4907 50.8078 56.6517 55.2489 53.3119 58.5887ZM40.8073 27.3993C35.3461 27.3993 30.2173 29.7732 26.6892 33.8463H7.06702V24.5902C7.06702 23.7642 7.73897 23.0922 8.565 23.0922H73.0496C73.8757 23.0922 74.5476 23.7642 74.5476 24.5902V32.919C74.5476 33.4297 74.1311 33.8463 73.6203 33.8463H54.9126C51.4844 29.8988 46.4326 27.3993 40.8073 27.3993Z"
        fill="#9A9A9A" />
    <path
        d="M69.9771 26.2578H63.59C62.764 26.2578 62.092 26.9298 62.092 27.7558V29.181C62.092 30.0071 62.764 30.679 63.59 30.679H69.9785C70.8046 30.679 71.4765 30.0071 71.4765 29.181V27.7558C71.4751 26.9298 70.8031 26.2578 69.9771 26.2578ZM63.0907 29.181V27.7558C63.0907 27.4805 63.3146 27.2565 63.59 27.2565H64.9724C64.3932 27.7002 64.018 28.3964 64.018 29.181C64.018 29.3636 64.0679 29.5334 64.1521 29.6804H63.59C63.3146 29.6804 63.0907 29.4564 63.0907 29.181ZM12.8554 65.5264H19.244C20.07 65.5264 20.7419 64.8544 20.7419 64.0284V62.6032C20.7419 61.7772 20.07 61.1052 19.244 61.1052H12.8554C12.0294 61.1052 11.3574 61.7772 11.3574 62.6032V64.0284C11.3574 64.8544 12.0294 65.5264 12.8554 65.5264ZM12.3561 62.6032C12.3561 62.3278 12.5801 62.1039 12.8554 62.1039H14.2378C13.6586 62.5476 13.2834 63.2438 13.2834 64.0284C13.2834 64.211 13.3333 64.3808 13.4175 64.5277H12.8554C12.5801 64.5277 12.3561 64.3038 12.3561 64.0284V62.6032Z"
        fill="#9A9A9A" />
</svg>

<svg xmlns="http://www.w3.org/2000/svg" width="81" height="80" fill="none"><path fill="#0166FF" d="M41.04 31.197c-8.22 0-14.884 6.664-14.884 14.886s6.664 14.886 14.885 14.886 14.884-6.664 14.884-14.886c0-8.22-6.664-14.886-14.884-14.886m-8.23 21.49a.5.5 0 0 1-.492-.421.5.5 0 0 1 .088-.372L43.34 36.835a.5.5 0 0 1 .81.587L33.214 52.48a.5.5 0 0 1-.405.207m15.093-11.854-6.93 9.544a.499.499 0 1 1-.807-.588l6.93-9.544a.5.5 0 0 1 .697-.111.5.5 0 0 1 .11.699"/><path fill="#E1EAF8" d="M9.357 41.734v11.56a2.744 2.744 0 0 0 2.744 2.744h5.939c1.993 0 3.176-2.227 2.059-3.878a8.18 8.18 0 0 1-1.404-4.58v-1.746c0-1.871.38-3.725 1.114-5.447l.514-1.202a1.275 1.275 0 0 0-1.136-1.775l-5.23-.148a4.474 4.474 0 0 0-4.6 4.472m63.014 0v11.56a2.744 2.744 0 0 1-2.743 2.744h-5.94c-1.992 0-3.175-2.227-2.058-3.878a8.18 8.18 0 0 0 1.404-4.58v-1.746c0-1.871-.38-3.725-1.114-5.447l-.514-1.202a1.275 1.275 0 0 1 1.136-1.775l5.23-.148a4.474 4.474 0 0 1 4.6 4.472"/><path fill="#9A9A9A" d="M75.546 32.918v-8.33a2.5 2.5 0 0 0-2.496-2.496h-8.062L61.61 14.13A3.49 3.49 0 0 0 58.392 12H33.86c-1.405 0-2.669.836-3.218 2.13l-2.492 5.875a.5.5 0 0 0 .92.39l2.492-5.875a2.49 2.49 0 0 1 2.298-1.523h6.408a13.2 13.2 0 0 0-8.662 7.777c-.19.47-.087.963.194 1.317H21.532v-1.74a2.025 2.025 0 0 0-2.023-2.024h-5.982a2.025 2.025 0 0 0-2.023 2.023v1.74H8.565a2.5 2.5 0 0 0-2.497 2.497v42.389a2.5 2.5 0 0 0 2.497 2.497H73.05a2.5 2.5 0 0 0 2.496-2.497V36.499a.5.5 0 0 0-.998 0v21.823H54.925a18.54 18.54 0 0 0 4.564-12.238c0-4.216-1.403-8.109-3.767-11.239H73.62a1.93 1.93 0 0 0 1.926-1.927M38.046 16.5c0-.552.446-.999.998-.999h15.178c.552 0 .999.447.999 1v2.088a1 1 0 0 1-.999.998H39.044a1 1 0 0 1-.999-.998zm-25.543 3.85c0-.564.459-1.024 1.024-1.024h1.862a2.87 2.87 0 0 0-1.256 2.374q.002.214.092.391h-1.722zM53.312 58.59a17.57 17.57 0 0 1-12.505 5.18c-9.75 0-17.683-7.934-17.684-17.686 0-2.538.526-4.986 1.562-7.28a.5.5 0 1 0-.91-.41 18.5 18.5 0 0 0-1.651 7.691c0 4.677 1.728 8.958 4.577 12.238H10.14a.5.5 0 0 0 0 .999h17.495a18.62 18.62 0 0 0 13.172 5.447c4.99 0 9.682-1.944 13.211-5.473l.029-.029a.5.5 0 0 0 .22.055h20.28v7.656a1.5 1.5 0 0 1-1.497 1.498H8.565a1.5 1.5 0 0 1-1.498-1.498V34.843h18.816q-.305.404-.592.828a.5.5 0 0 0 .829.558 17.67 17.67 0 0 1 14.687-7.831c9.752 0 17.684 7.933 17.685 17.686a17.58 17.58 0 0 1-5.18 12.505m-12.505-31.19a18.66 18.66 0 0 0-14.118 6.447H7.067V24.59a1.5 1.5 0 0 1 1.498-1.498H73.05a1.5 1.5 0 0 1 1.498 1.498v8.329a.93.93 0 0 1-.928.927H54.913C51.484 29.9 46.433 27.4 40.807 27.4"/><path fill="#9A9A9A" d="M69.977 26.258H63.59a1.5 1.5 0 0 0-1.498 1.498v1.425a1.5 1.5 0 0 0 1.498 1.498h6.388a1.5 1.5 0 0 0 1.499-1.498v-1.425a1.5 1.5 0 0 0-1.5-1.498m-6.886 2.923v-1.425a.5.5 0 0 1 .499-.5h1.382a2.42 2.42 0 0 0-.954 1.925 1 1 0 0 0 .134.5h-.562a.5.5 0 0 1-.5-.5M12.855 65.526h6.389a1.5 1.5 0 0 0 1.498-1.498v-1.425a1.5 1.5 0 0 0-1.498-1.498h-6.389a1.5 1.5 0 0 0-1.498 1.498v1.425a1.5 1.5 0 0 0 1.498 1.498m-.499-2.923a.5.5 0 0 1 .5-.5h1.382a2.42 2.42 0 0 0-.955 1.925 1 1 0 0 0 .135.5h-.563a.5.5 0 0 1-.499-.5z"/></svg>
